X:71
T:Last Night's Fun
R:slip jig
H:See also #63
D:Joel Bernstein & Randal Bays: Pigtown Fling
Z:id:hn-slipjig-71
M:9/8
L:1/8
K:Dmix
D2A A2G ABc | D2A AGE G2E | D2A A2G ABc |1 BAG AGE G2E :|2 BAG AGE G2A ||
|: BAB dBG ABc | BAB dBG c2A |1 BAB dBG ABc | BAG AGE G2A :|2 def gfe dBG | BAG AGE G2E ||
P:variations of 1st part
|: DED AGE ABc | D2A AGE G2E | DED AGE ABc |1 BAG AGE G2E :|2 BAG AGE G2A ||

